!!!SOCIAL_FUNCTION:	songs of medicine men's dance
!!!PDT:	1956
!!!OTL: No_16_Song_of_Medicine_Men's_Dance_(b).krn
!!!LANG: Non-Tone
!!!LING_GROUP: Muskogean
!!!REG: Florida
**kern
*staff1
=1-
*clefF4
*k[f#c#g#d#]
*M2/4
4r
8.r
16B\
=2
4..B\
16B\
=3||
*M3/4
12B\L
12A\
12A\J
4G#\
8B\L
8B\J
=4||
*M2/4
12B\L
24G#\Jk
24r
12B\
12G#\L
12E\
12E\J
=5
4E\
8G#\L
8G#\J
=6
8.G#\L
16B\Jk
12G#\L
12E\
12E\J
=7
4E\
8BB/L
8BB/J
=8
8.E\L
16E\Jk
12E/L
12BB/
12BB/J
=9
8BB/
8r
8.E\L
16E\Jk
=10
8.E\L
16G#\Jk
12G#\L
12G#\
12E\J
=11
4E\
8B\L
8B\J
=12
12G#\L
24E\Jk
24r
12G#\
12G#\L
12G#\
12E\J
=13
4E\
8BB/L
8BB/J
=14
8.E\L
16E\Jk
12E/L
12BB/
12BB/J
=15
4BB/
4r
==
*-
